X: 305618
T: FRAZIER'S REEL
C:
%R: reel, hornpipe
B: Elias Howe "The Musician's Companion" Part 3 1844 p.76 #3
S: http://imslp.org/wiki/The_Musician's_Companion_(Howe,_Elias)
Z: 2015 John Chambers <jc:trillian.mit.edu>
M: 2/4
L: 1/16
K: Bb
% - - - - - - - - - - - - - - - - - - - - - - - - -
F2 |\
B2dB (fB)(dB) | AFcF eFcF |\
B2(dB) fBdB | AFec B2 ::\
d2 |\
(fe)de (fb)ab | gfed cBAG |
(fe)de fbab | agf=e f2(fd) |\
(ed)gf (ec)fe | (dB)ed cBAF |\
B2dB fBdB | AFe[cA] B2 :|
% - - - - - - - - - - - - - - - - - - - - - - - - -

